!!!!SEGMENT: pl-cz--ii-87--003-002_grim-jozef--msza-druga-gloria.krn
!!!cenid: 18xx:1181
!!!COM: Grim, Józef
!!!COM-rismid: pe30003883
!!!CDT: ~1800-~1899
!!!CNT:
!!!OPR: Msza druga
!!!OTL: Gloria
!!!OMV: 002
!!!PDT: 1888
!!!AGN: Sacred; Mass
!!!SMS-siglum: PL-CZ
!!!SMS-shelfmark: II-87
!!!SMS-shelfwork: 003-002 M
!!!SMS-variant:
!!!SMS-altvar:
!!!NIFC-rismid: 300033226
!!!URL-scan: http://repozytorium.nifc.pl/skany/pl-cz-nut--ii-87
!!!ONB-nifc: UWAGA: części Mszy: Kirie, Gloria, Graduale, Credo, Offertorium, Sanctus, Po podniesieniu, Agnus
!!!AIN: 1 organ 1 vox
!!!key: a
!!!OMD: Allegro Moderato
**kern	**kern	**kern	**text
*part2	*part2	*part1	*part1
*staff3	*staff2	*staff1	*staff1
*I"Organ	*I"Organ	*I"Głos	*
*Iorgan	*Iorgan	*Ivox	*
*ICklav	*ICklav	*ICvox	*
*IGacmp	*IGacmp	*IGsolo	*
*clefF4	*clefG2	*clefG2	*
*k[]	*k[]	*k[]	*
*a:	*a:	*a:	*
*M4/4	*M4/4	*M4/4	*
=1	=1	=1	=1
*	*^	*^	*
1C	2cc/	2g 2e\	2cc/	2e\	Chwa-
.	4g 4e/	2c\	4g/	4e\	-ła
.	4a 4f/	.	4a/	4f\	ci
=2	=2	=2	=2	=2	=2
2.C/	2g/	4e 4c\	2g/	(>4e\	Bo-
.	.	4d 4B\	.	4d\)	.
.	2e 2c 2G/	2ryy	2e/	2c\	że
8E\L	.	.	.	.	.
8G\J	.	.	.	.	.
*	*v	*v	*	*	*
=3	=3	=3	=3	=3
2.C/	4e 4c/	2ryy	4e 4c/	na
.	4g 4e/	.	4g 4e/	wy-
.	4cc 4g 4e/	4cc/	4g\	-so-
4c\	4ee 4cc 4g\	4ee/	4cc\	-kim
=4	=4	=4	=4	=4
*	*^	*	*	*
2G\	2dd/	2b 2g\	2dd/	2b\	Nie-
4c\	4ee 4cc 4g/	2ryy	4ee/	4cc\	-bie!
4r	8cc\L	.	4r	4r	.
.	8dd\J	.	.	.	.
=5	=5	=5	=5	=5	=5
4C/	2ee 2cc/	2g\	2ee/	2cc\	A
4E\	.	.	.	.	.
4G\	2dd 2b/	4g\	4dd/	4b\	po-
4G#X\	.	4f\	4dd/	4b\	-kój
=6	=6	=6	=6	=6	=6
4A\	2cc 2a/	2e\	2cc/	2a\	lu-
8AA/L	.	.	.	.	.
8C/J	.	.	.	.	.
4E\	4b/	4g\	4b/	4g\	-dziom
4r	8bL 8g/	4ryy	4r	4ryy	.
.	8ccJ 8a/	.	.	.	.
*	*v	*v	*	*	*
!!LO:LB:g=original
=7	=7	=7	=7	=7
[1D	4dd 4b/	4dd/	4b\	cno-
.	4b 4g/	4b 4g/	2.ryy	-tli-
.	4cc 4a\	4cc 4a/	.	-wym
.	4a 4f#X/	4a 4f#X/	.	na
=8	=8	=8	=8	=8
*	*^	*	*	*
2D\]	2a 2f#X/	4d\	2a/	2f#X\	zie-
.	.	4c\	.	.	.
8GG\L	4g 4B/	2ryy	4g/	4g\	-mi
8G\	.	.	.	.	.
8D\	4r	.	4r	4ryy	.
8BB\J	.	.	.	.	.
*	*v	*v	*	*	*
=9	=9	=9	=9	=9
*^	*	*	*	*
4GG/	2GG/	2.g 2.B/	2g/	2B\	Cie-
4G\	.	.	.	.	.
4G\	2ryy	.	4g/	4B\	-bie
4G\	.	4g 4B/	4g/	4B\	wiel-
=10	=10	=10	=10	=10	=10
4GG/	2GG/	2b 2d/	2b/	2d\	-bie-
8BB/L	.	.	.	.	.
8D/J	.	.	.	.	.
!LO:TX:b:t=g:color=grey	!	!	!	!	!
4E/	4G/@	2g 2B/	2g/	2B\	-my,
8D/L	4ryy	.	.	.	.
8BB/J	.	.	.	.	.
=11	=11	=11	=11	=11	=11
4GG/	2GG/	2.g 2.B/	4g/	4B\	bło-
4G/	.	.	4g/	4B\	-go-
4G/	2ryy	.	4f/	4B\	-sła-
4G/	.	4b 4d/	4b/	4d\	-wim
*v	*v	*	*	*	*
=12	=12	=12	=12	=12
*	*^	*	*	*
4GG/	2dd/	2f\	2dd/	2fn\	cie-
8BB/L	.	.	.	.	.
8D/J	.	.	.	.	.
*	*v	*v	*	*	*
4G\	4g 4B/	4g/	4f\	-bie
4r	8aL 8c/	4r	4r	.
.	8bJ 8d/	.	.	.
!!LO:LB:g=original
=13	=13	=13	=13	=13
*	*^	*	*	*
4CC/	[1cc	2e\	2cc/	2e\	To-
4C/	.	.	.	.	.
4D\	.	4f\	4cc/	4f\	-bie
4E\	.	4g\	4cc/	4g\	część
=14	=14	=14	=14	=14	=14
4F\	1cc]	2a\	2cc/	2a\	nie-
4c\	.	.	.	.	.
4A\	.	4f\	2cc/	4f\	-siem
4F\	.	4a\	.	4a\	.
=15	=15	=15	=15	=15	=15
4E\	2.cc/	4g\	4cc/	4g\	gło-
4C\	.	4e\	4cc/	4e\	-sy
4D\	.	4f\	4cc/	4f\	złą-
4E\	4b-X/	4g\	4b-X/	4g\	-czo-
=16	=16	=16	=16	=16	=16
4F\	2b 2g/	2c\	2b 2g/	2c\	-ne-
4C/	.	.	.	.	.
4FF/	4a 4f/	2ryy	4a/	4f\	-mi
4r	8cc/L	.	4r	4ryy	.
.	8a/J	.	.	.	.
=17	=17	=17	=17	=17	=17
4FF/	2g 2f 2B/	2ryy	2g/	2B\	To-
4G\	.	.	.	.	.
4F\	4b/	4g 4e\	4b/	4g\	-bie
4D\	4dd/	4b 4g\	4dd/	4b\	częsc
=18	=18	=18	=18	=18	=18
4C\	4ee 4cc/	2g\	4ee/	4cc\	nie-
4G\	4dd 4b/	.	4dd/	4b\	-sie-
4A\	4cc 4a/	2e\	4cc/	4a\	-my
4E\	4b 4g/	.	4b/	4g\	głosy
!!LO:LB:g=original
=19	=19	=19	=19	=19	=19
4F\	2a 2f/	4c\	4a/	4a/	złą-
4D\	.	4d\	4a/	4a/	-czo-
4G\	2b 2g/	4d\	2b/	4g\	-ne-
4GG/	.	4f\	.	4f\	.
=20	=20	=20	=20	=20	=20
2C 2CC/	2cc/	2g 2e\	2cc/	2e\	-mi.
2r;	2r;	2ryy	2r;	2ryy	.
*	*v	*v	*	*	*
*	*	*v	*v	*
==	==	==	==
*-	*-	*-	*-
!!!system-decoration: <s1>(s2,s3)
!!!RDF**kern: > = above
!!!RDF**kern: @ = marked note, color=grey
!!!ENC: Berenika Jozajtis
!!!END: 2020-11-07
!!!ENC: Marta Lawrence
!!!END: 2021-11-14
